X: 161
T:Mr Marshall's Reel
B:William Marshall Volume 2nd Of A Collection Of Scottish Melodies (1845)
C:George Robertson
L:1/8
M:C|
O:Scotland
R:Reel
Z:Clark Bernst + Richard Robinson
%%Caption:By Mr George Robertson, Albany St. Edinburg. This is the only Melody in the work not Mr. Marshall's
%%Page:25 - 1
F:http://richardrobinson.tunebook.org.uk/tune/4004
%%TBL:{"version":1,"type":"tune","id":"4004"}
K:D
D2 FA dAFD | E<EGE BEGE & B,2x6 | D2 (F>A) dAFA | (f>g)fe d2 D2 :|
d<daf a>baf | A<AeA c>eAe | d<daf a>baf | (g/a/b) (e/f/g) f<dd>f |
d<daf a>ba>f | g<e g/f/e/d/ c<ee>g | (fd).A.F (BG).E.g | A>g f/e/d/c/ d<D D2 |]
D<DFD d>DF>D | E<EGE B>EG>E | D<DFD d>DF>D | E>gf>e d<D D2 |
D<DFD d>DF>D | E<EGE B>EG>E | D<DFD d>DF>D | E>gf>e d<D D2 |]
dafa dafa | Aece Aece | dafa dafa | (g/a/b) a>g f<dd>f & d2c2x4 |
dafa dafa | Aece Aece | [Aa]fdA ([Af]d).A.F | (G/A/B) A>c [Fd]D D2 & x2G2x4|]

